src/assets/icons/refresh-ccw.svg

<svg viewBox="0 0 24 24" color="currentColor" xmlns="http://www.w3.org/2000/svg"><path d="m6.19306266 7h3.80693734v2h-7v-7h2v3.27034886c1.72510698-2.08783708 4.19576641-3.27034886 7-3.27034886 5.5228475 0 10 4.4771525 10 10-2 0 0 0-2 0 0-4.418278-3.581722-8-8-8-2.39362381 0-4.44646011 1.07869636-5.80693734 3zm11.61387464 10h-3.8069373v-2h7v7h-2v-3.2703489c-1.725107 2.0878371-4.1957664 3.2703489-7 3.2703489-5.5228475 0-10-4.4771525-10-10h2c0 4.418278 3.581722 8 8 8 2.3936238 0 4.4464601-1.0786964 5.8069373-3z" fill-rule="evenodd"/></svg>

<svg xmlns="http://www.w3.org/2000/svg" color="currentColor" viewBox="0 0 24 24"><path fill-rule="evenodd" d="M6.193 7H10v2H3V2h2v3.27C6.725 3.183 9.196 2 12 2c5.523 0 10 4.477 10 10h-2a8 8 0 0 0-8-8C9.606 4 7.554 5.079 6.193 7zm11.614 10H14v-2h7v7h-2v-3.27C17.275 20.817 14.804 22 12 22 6.477 22 2 17.523 2 12h2a8 8 0 0 0 8 8c2.394 0 4.446-1.079 5.807-3z"/></svg>
